packages/ui-icons/src/Basic/16/Obedinyay_16.svg

<?xml version="1.0" encoding="utf-8"?>
<svg version="1.1" id="Слой_1" xmlns="http://www.w3.org/2000/svg" xmlns:xlink="http://www.w3.org/1999/xlink" x="0px" y="0px"
	 viewBox="0 0 20 20" style="enable-background:new 0 0 20 20;" xml:space="preserve">
<path id="Shape" d="M12,15.50006H3.5c-0.82843,0-1.5-0.67157-1.5-1.5v-5c0-0.82843,0.67157-1.5,1.5-1.5h9
	c0.17268,0,0.34129,0.02942,0.49982,0.08542c0.15644-0.05532,0.3248-0.08542,0.50018-0.08542h3c0.82843,0,1.5,0.67157,1.5,1.5v7
	c0,0.82843-0.67157,1.5-1.5,1.5h-3c-0.82843,0-1.5-0.67157-1.5-1.5V15.50006z M12.08535,8.50006H3.5c-0.27614,0-0.5,0.22386-0.5,0.5
	v5c0,0.27614,0.22386,0.5,0.5,0.5H12v-5.5C12,8.82475,12.03008,8.65645,12.08535,8.50006L12.08535,8.50006z M16.5,16.50006
	c0.27614,0,0.5-0.22386,0.5-0.5v-7c0-0.27614-0.22386-0.5-0.5-0.5h-3c-0.27614,0-0.5,0.22386-0.5,0.5v7
	c0,0.27614,0.22386,0.5,0.5,0.5H16.5z M15,16.00006c-0.27614,0-0.5-0.22386-0.5-0.5s0.22386-0.5,0.5-0.5s0.5,0.22386,0.5,0.5
	S15.27614,16.00006,15,16.00006z M6,17.50006v-1h5v1H6z M9,7.00006c-0.27614,0-0.5-0.22386-0.5-0.5s0.22386-0.5,0.5-0.5
	s0.5,0.22386,0.5,0.5S9.27614,7.00006,9,7.00006z M10.70711,4.81785L10,5.52496c-0.58579-0.58579-1.53553-0.58579-2.12132,0
	L7.17157,4.81785C8.14788,3.84154,9.7308,3.84154,10.70711,4.81785z M12.12132,3.40364l-0.70711,0.70711
	c-1.36683-1.36684-3.58291-1.36684-4.94975,0L5.75736,3.40364C7.51472,1.64628,10.36396,1.64628,12.12132,3.40364z"/>
</svg>

<svg xmlns="http://www.w3.org/2000/svg" viewBox="0 0 20 20" style="enable-background:new 0 0 20 20" xml:space="preserve"><path d="M12 15.5H3.5A1.5 1.5 0 0 1 2 14V9a1.5 1.5 0 0 1 1.5-1.5h9c.173 0 .341.03.5.085.156-.055.325-.085.5-.085h3A1.5 1.5 0 0 1 18 9v7a1.5 1.5 0 0 1-1.5 1.5h-3A1.5 1.5 0 0 1 12 16v-.5zm.085-7H3.5A.5.5 0 0 0 3 9v5a.5.5 0 0 0 .5.5H12V9c0-.175.03-.344.085-.5zm4.415 8a.5.5 0 0 0 .5-.5V9a.5.5 0 0 0-.5-.5h-3a.5.5 0 0 0-.5.5v7a.5.5 0 0 0 .5.5h3zM15 16a.5.5 0 1 1 0-1 .5.5 0 0 1 0 1zm-9 1.5v-1h5v1H6zM9 7a.5.5 0 1 1 0-1 .5.5 0 0 1 0 1zm1.707-2.182L10 5.525a1.5 1.5 0 0 0-2.121 0l-.707-.707a2.5 2.5 0 0 1 3.535 0zm1.414-1.414-.707.707a3.5 3.5 0 0 0-4.95 0l-.707-.707a4.5 4.5 0 0 1 6.364 0z"/></svg>
